logos/discourse-icon.svg

<?xml version="1.0" encoding="UTF-8"?>
<svg width="256px" height="259px" viewBox="0 0 256 259" version="1.1" xmlns="http://www.w3.org/2000/svg" preserveAspectRatio="xMidYMid">
    <title>Discourse</title>
    <g>
        <path d="M129.095081,0 C59.0099164,0 0,56.819755 0,126.929808 L0,258.364379 L129.070192,258.239938 C199.155357,258.239938 256,199.230021 256,129.144857 C256,59.0596928 199.10558,0 129.095081,0 Z" fill="#000000"></path>
        <path d="M130.339491,49.129302 C102.619002,49.1456632 76.9515766,63.745111 62.7691338,87.5628371 C48.5866907,111.380563 47.9812117,140.903334 61.1751896,165.28252 L46.9391406,211.076803 L98.0594983,199.52868 C127.332994,212.717583 161.683856,206.793982 184.849284,184.5623 C208.014712,162.330619 215.34579,128.252384 203.371751,98.4613268 C191.397711,68.6702695 162.521545,49.1449581 130.414155,49.129302 L130.339491,49.129302 Z" fill="#FFF9AE"></path>
        <path d="M191.856714,176.491821 C169.510363,204.681699 130.885875,214.116738 98.0594983,199.404239 L46.9391406,211.101692 L98.9803617,204.954307 C133.480104,225.163991 177.652417,216.272059 201.645448,184.287718 C225.638479,152.303378 221.815066,107.407485 192.75909,79.9408905 C214.574652,108.543511 214.203065,148.301944 191.856714,176.491821 Z" fill="#00AEEF"></path>
        <path d="M187.45572,161.546412 C168.175412,191.914512 130.748701,205.331016 96.5662065,194.127941 L46.9391406,211.101692 L98.0594983,199.52868 C134.467243,215.974525 177.420324,202.512353 197.928478,168.228167 C218.436631,133.943982 209.98342,89.7315341 178.274159,65.4310714 C202.955222,91.5996965 206.736028,131.178311 187.45572,161.546412 Z" fill="#00A94F"></path>
        <path d="M65.8790589,167.024694 C51.6312704,132.680971 63.3728789,93.0516744 94.0298199,72.0125972 C124.686761,50.9735201 165.887242,54.2700097 192.808866,79.9160023 C167.87543,47.1952633 121.943027,39.2083898 87.4278666,61.5920164 C52.9127062,83.9756427 41.4699552,129.171209 61.1751896,165.28252 L46.9391406,211.076803 L65.8790589,167.024694 Z" fill="#F15D22"></path>
        <path d="M61.1751896,165.28252 C43.4964018,132.627896 51.0576256,92.0582625 79.3129436,67.9646737 C107.568261,43.8710849 148.822979,42.8148828 178.274159,65.4310714 C150.022771,35.683495 103.654717,32.6392369 71.7564946,58.4377377 C39.8582724,84.2362388 33.1395004,130.215822 56.3219911,164.062998 L46.9640288,211.101692 L61.1751896,165.28252 Z" fill="#D0232B"></path>
    </g>
</svg>

<svg preserveAspectRatio="xMidYMid" viewBox="0 0 256 259" xmlns="http://www.w3.org/2000/svg">
  <path d="M129.095 0C59.01 0 0 56.82 0 126.93v131.434l129.07-.124c70.085 0 126.93-59.01 126.93-129.095C256 59.06 199.106 0 129.095 0Z"/>
  <path fill="#FFF9AE" d="M130.34 49.13a78.696 78.696 0 0 0-69.165 116.153L46.94 211.077l51.12-11.548c29.274 13.189 63.625 7.265 86.79-14.967 23.166-22.231 30.497-56.31 18.523-86.1-11.974-29.792-40.85-49.317-72.958-49.333h-.075Z"/>
  <path fill="#00AEEF" d="M191.857 176.492c-22.347 28.19-60.971 37.625-93.798 22.912l-51.12 11.698 52.041-6.148c34.5 20.21 78.672 11.318 102.665-20.666 23.993-31.985 20.17-76.88-8.886-104.347 21.816 28.603 21.444 68.36-.902 96.55Z"/>
  <path fill="#00A94F" d="M187.456 161.546c-19.28 30.369-56.707 43.785-90.89 32.582L46.94 211.102l51.12-11.573c36.408 16.446 79.361 2.983 99.87-31.3 20.508-34.285 12.054-78.497-19.655-102.798 24.681 26.169 28.462 65.747 9.182 96.115Z"/>
  <path fill="#F15D22" d="M65.88 167.025c-14.25-34.345-2.508-73.973 28.15-95.012 30.657-21.04 71.857-17.743 98.779 7.903-24.934-32.72-70.866-40.708-105.381-18.324-34.515 22.384-45.958 67.58-26.253 103.69L46.94 211.078l18.94-44.052Z"/>
  <path fill="#D0232B" d="M61.175 165.283c-17.679-32.655-10.117-73.225 18.138-97.318 28.255-24.094 69.51-25.15 98.961-2.534-28.251-29.748-74.62-32.792-106.518-6.993-31.898 25.798-38.616 71.778-15.434 105.625l-9.358 47.039 14.211-45.82Z"/>
</svg>
